X: 15328
T: Glad Eye, The
R: jig
M: 6/8
K: Adorian
E|:=FAc edc|Bdc BAG|Ace a2b|c'bg gaf|
dag fed|^c/d/ec cdB|cBA BAG|EeB AGE:|
|:A3 ecd|EAB ecd|EGB cBc|Bec BAG|
A3 ecd|EAB ecd|B/c/dc BAG|EFG AGE:|

